16x16/apps/com.jetbrains.PhpStorm.svg

<svg height="16" width="16" xmlns="http://www.w3.org/2000/svg"><path d="m8 0h-7.2c-.443 0-.8.357-.8.8v7.2h8z" fill="#cf4f8c"/><path d="m8 0h7.2c.443 0 .8.357.8.8v7.2h-8zm0 16h-7.2a.798.798 0 0 1 -.8-.8v-7.2h8z" fill="#6655e4"/><path d="m8 16h7.2c.443 0 .8-.357.8-.8v-7.2h-8z" fill="#cf4f8c"/><path d="m2 2h12v12h-12z" fill="#17191e"/><g fill="none" stroke="#f4f4f7" stroke-linecap="round"><path d="m3.507 11.5h4"/><path d="m3.507 5.5s2 .232 2-1-2-1-2-1m0 4v-4" stroke-linejoin="bevel"/><path d="m7.507 7s.252.5 1 .5 1-.5 1-1c0-2.107-2 .106-1.994-1.995-.006-.505.237-1.005.994-1.005s1 .5 1 .5" stroke-linejoin="round"/></g></svg>

<svg xmlns="http://www.w3.org/2000/svg" width="16" height="16" version="1"><path style="fill:#cf4f8c" d="M8 0H.8C.357 0 0 .357 0 .8V8h8z"/><path style="fill:#6655e4" d="M8 0h7.2c.443 0 .8.357.8.8V8H8zM8 16H.8a.798.798 0 0 1-.8-.8V8h8z"/><path style="fill:#cf4f8c" d="M8 16h7.2c.443 0 .8-.357.8-.8V8H8z"/><path style="fill:#17191e" d="M2 2h12v12H2z"/><path style="fill:none;stroke:#f4f4f7;stroke-linecap:round" d="M3.507 11.5h4"/><path style="fill:none;stroke:#f4f4f7;stroke-width:.99999994;stroke-linecap:round;stroke-linejoin:bevel" d="M3.507 5.5s2 .232 2-1-2-1-2-1m0 4v-4"/><path style="fill:none;stroke:#f4f4f7;stroke-width:.99999994;stroke-linecap:round;stroke-linejoin:round" d="M7.507 7s.252.5 1 .5 1-.5 1-1c0-2.107-2 .106-1.994-1.995C7.507 4 7.75 3.5 8.507 3.5s1 .5 1 .5"/></svg>
